docs/assets/icons/asus-tuf-dark.svg

<?xml version="1.0" encoding="UTF-8"?>
<svg version="1.1" viewBox="0 0 450 450" xmlns="http://www.w3.org/2000/svg"><defs><clipPath id="clip-ASUS_TUF_Gaming_Logo"><rect width="450" height="450"/></clipPath></defs><g transform="matrix(1.2765 0 0 1.2765 -62.205 -62.203)" clip-path="url(#clip-ASUS_TUF_Gaming_Logo)" data-name="ASUS TUF Gaming Logo"><path transform="translate(50.273,399.5)" d="m28.642-55.926h-28.33v10.526h7.506v45.4h13.317v-45.4h7.506zm36 0h-13.321v45.4h-5.811v-45.4h-13.317v47.814l8.878 8.112h14.929l8.636-8.112zm33.6 0h-25.834v55.926h13.317v-24.336h10.17v-10.53h-10.17v-10.534h12.51zm56.154 8.112-9.04-8.112h-14.856l-8.878 8.112v39.7l9.278 8.114h14.689l8.8-8.112v-21.06h-16.626v10.53h3.309v8.112h-6.134v-34.87h6.134v10.452h13.317zm31.745-8.112h-19.29l-8.158 55.926h12.994l1.13-10.3h7.748l1.135 10.3h13.07zm-6.538 35.1h-5.811l2.008-23.244h1.291zm64.166-35.1h-15.664l-4.358 27.066h-1.211l-4.681-27.066h-15.655v55.926h12.187v-35.49h.565l5.566 35.49h4.923l5.569-35.49h.565v35.49h12.187zm22.6 0h-13.319v55.926h13.317zm41.682 0h-12.51v26.91h-.161l-8.555-26.91h-11.141v55.926h12.51v-27.222h.161l8.637 27.222h11.057zm41.093 8.112-9.04-8.112h-14.852l-8.878 8.112v39.7l9.282 8.114h14.689l8.8-8.112v-21.06h-16.629v10.53h3.309v8.112h-6.134v-34.87h6.134v10.452h13.317z" fill="#d7a900" data-name="Path 1670"/><path transform="translate(-8381.7 1754.5)" d="m8614-1622.1 64-36.938v162.03l-64 36.972zm-80 125.09v-162.03l64 36.939v162.06zm160-101.21 64-36.939v54.809l-64 36.972zm-240 17.87v-123.69l64 36.939v123.72zm240-86.747 64-36.94v54.806l-64 36.974z" fill="#fff" data-name="Path 1671"/></g></svg>

<?xml version="1.0" encoding="UTF-8" standalone="no"?>
<svg
   width="450"
   height="450"
   viewBox="0 0 450 450"
   version="1.1"
   id="svg1"
   sodipodi:docname="asus-tuf-gaming-dark.svg"
   inkscape:version="1.4.3 (0d15f75042, 2025-12-25)"
   xmlns:inkscape="http://www.inkscape.org/namespaces/inkscape"
   xmlns:sodipodi="http://sodipodi.sourceforge.net/DTD/sodipodi-0.dtd"
   xmlns="http://www.w3.org/2000/svg"
   xmlns:svg="http://www.w3.org/2000/svg">
  <sodipodi:namedview
     id="namedview1"
     pagecolor="#505050"
     bordercolor="#ffffff"
     borderopacity="1"
     inkscape:showpageshadow="0"
     inkscape:pageopacity="0"
     inkscape:pagecheckerboard="1"
     inkscape:deskcolor="#505050"
     inkscape:zoom="2.5911111"
     inkscape:cx="225.19297"
     inkscape:cy="86.063465"
     inkscape:window-width="2560"
     inkscape:window-height="1368"
     inkscape:window-x="0"
     inkscape:window-y="0"
     inkscape:window-maximized="1"
     inkscape:current-layer="svg1" />
  <defs
     id="defs1">
    <clipPath
       id="clip-ASUS_TUF_Gaming_Logo">
      <rect
         width="450"
         height="450"
         id="rect1" />
    </clipPath>
  </defs>
  <g
     id="ASUS_TUF_Gaming_Logo"
     data-name="ASUS TUF Gaming Logo"
     clip-path="url(#clip-ASUS_TUF_Gaming_Logo)"
     transform="matrix(1.2764576,0,0,1.2764576,-62.204875,-62.20296)">
    <path
       id="Path_1670"
       data-name="Path 1670"
       d="M 28.642,-55.926 H 0.312 V -45.4 H 7.818 V 0 h 13.317 v -45.4 h 7.506 z m 36,0 H 51.321 v 45.4 H 45.51 v -45.4 H 32.193 V -8.112 L 41.071,0 H 56 l 8.636,-8.112 z m 33.6,0 H 72.408 V 0 h 13.317 v -24.336 h 10.17 v -10.53 H 85.725 V -45.4 h 12.51 z m 56.154,8.112 -9.04,-8.112 H 130.5 l -8.878,8.112 v 39.7 L 130.9,0 h 14.689 l 8.8,-8.112 v -21.06 h -16.626 v 10.53 h 3.309 v 8.112 h -6.134 V -45.4 h 6.134 v 10.452 h 13.317 z m 31.745,-8.112 h -19.29 L 158.693,0 h 12.994 l 1.13,-10.3 h 7.748 L 181.7,0 h 13.07 z m -6.538,35.1 h -5.811 L 175.8,-44.07 h 1.291 z m 64.166,-35.1 h -15.664 l -4.358,27.066 h -1.211 l -4.681,-27.066 H 202.2 V 0 h 12.187 v -35.49 h 0.565 L 220.518,0 h 4.923 l 5.569,-35.49 h 0.565 V 0 h 12.187 z m 22.6,0 H 253.05 V 0 h 13.317 z m 41.682,0 h -12.51 v 26.91 h -0.161 l -8.555,-26.91 H 275.684 V 0 h 12.51 v -27.222 h 0.161 L 296.992,0 h 11.057 z m 41.093,8.112 -9.04,-8.112 h -14.852 l -8.878,8.112 v 39.7 L 325.656,0 h 14.689 l 8.8,-8.112 v -21.06 h -16.629 v 10.53 h 3.309 v 8.112 h -6.134 V -45.4 h 6.134 v 10.452 h 13.317 z"
       transform="translate(50.273,399.5)"
       style="fill:#d7a900;fill-opacity:1" />
    <path
       id="Path_1671"
       data-name="Path 1671"
       d="m 8614,-1622.062 64,-36.938 v 162.028 l -64,36.972 z m -80,125.089 V -1659 l 64,36.939 V -1460 Z m 160,-101.21 64,-36.939 v 54.809 l -64,36.972 z m -240,17.87 V -1704 l 64,36.939 v 123.719 z m 240,-86.747 64,-36.94 v 54.806 l -64,36.974 z"
       transform="translate(-8381.728,1754.5)"
       style="fill:#cccccc;fill-opacity:1" />
  </g>
</svg>
